X: 7467
T: Cnoc Na gClarac
R: slide
M: 12/8
K: Amixolydian
e3- efe dcd e2 d|c2 A cBA a3- a2 g|
e2 e gfe dcd fed|c2 A B2 ^G A3- A3|
e3 efe d2 f e2 d|c2 A B2 A a3 a2 g|
efe gfe dcd fed|cBA BA^G A3 A3||
e2 a a^ga e2 d Bcd|e2 a a^ga e2 =g d3|
e2 a a2 g e2 f gfe|d2 A def g2 g f2 g|
e2 a a^ga e2 d Bcd|e2 a a^ga e2 =g d2 f|
e2 a a2 g e3 efe|d2 A def gfg faf||

